svgs/pokemon_unite.svg

<svg width="192" height="192" viewBox="0 0 192 192" fill="none" xmlns="http://www.w3.org/2000/svg">
<path fill-rule="evenodd" clip-rule="evenodd" d="M28.2611 90C31.2986 55.2549 60.4665 28 96 28C131.534 28 160.701 55.2549 163.739 90H125.4C122.62 76.3066 110.514 66 96 66C81.4863 66 69.3797 76.3066 66.6001 90H28.2611ZM28.261 102C30.2332 124.564 43.224 143.975 61.8458 154.814C64.7097 156.481 65.68 160.154 64.013 163.018C62.346 165.882 58.673 166.853 55.8091 165.186C32.0156 151.336 16 125.542 16 96C16 51.8172 51.8172 16 96 16C140.183 16 176 51.8172 176 96C176 125.542 159.984 151.336 136.191 165.186C133.327 166.853 129.654 165.882 127.987 163.018C126.32 160.154 127.29 156.481 130.154 154.814C148.776 143.975 161.767 124.564 163.739 102H125.4C122.62 115.693 110.514 126 96 126C81.4863 126 69.3797 115.693 66.6001 102H28.261ZM96 78C86.0589 78 78 86.0589 78 96C78 105.941 86.0589 114 96 114C105.941 114 114 105.941 114 96C114 86.0589 105.941 78 96 78ZM78 130C81.3137 130 84 132.686 84 136V152C84 158.627 89.3726 164 96 164C102.627 164 108 158.627 108 152V136C108 132.686 110.686 130 114 130C117.314 130 120 132.686 120 136V152C120 165.255 109.255 176 96 176C82.7452 176 72 165.255 72 152V136C72 132.686 74.6863 130 78 130Z" fill="black"/>
</svg>

<svg xmlns="http://www.w3.org/2000/svg" width="192" height="192" fill="none" xmlns:v="https://vecta.io/nano"><path fill-rule="evenodd" d="M28.261 90C31.299 55.255 60.467 28 96 28s64.701 27.255 67.739 62H125.4c-2.78-13.693-14.886-24-29.4-24S69.38 76.307 66.6 90H28.261zm0 12c1.972 22.564 14.963 41.975 33.585 52.814a6 6 0 1 1-6.037 10.372C32.016 151.336 16 125.542 16 96c0-44.183 35.817-80 80-80s80 35.817 80 80c0 29.542-16.016 55.336-39.809 69.186a6 6 0 1 1-6.037-10.372c18.622-10.839 31.613-30.25 33.585-52.814H125.4c-2.78 13.693-14.886 24-29.4 24s-26.62-10.307-29.4-24H28.261zM96 78c-9.941 0-18 8.059-18 18s8.059 18 18 18 18-8.059 18-18-8.059-18-18-18zm-18 52a6 6 0 0 1 6 6v16c0 6.627 5.373 12 12 12s12-5.373 12-12v-16a6 6 0 1 1 12 0v16c0 13.255-10.745 24-24 24s-24-10.745-24-24v-16a6 6 0 0 1 6-6z" fill="#000"/></svg>
